flaticon/design/crop-1.svg

<svg xmlns="http://www.w3.org/2000/svg" width="32" height="32" viewBox="0 0 24 24">
    <path d="M9.601562 7.601562C9.601562 7.820312 9.421875 8 9.199219 8 8.980469 8 8.800781 7.820312 8.800781 7.601562 8.800781 7.378906 8.980469 7.199219 9.199219 7.199219 9.421875 7.199219 9.601562 7.378906 9.601562 7.601562zM12 7.601562C12 7.820312 11.820312 8 11.601562 8 11.378906 8 11.199219 7.820312 11.199219 7.601562 11.199219 7.378906 11.378906 7.199219 11.601562 7.199219 11.820312 7.199219 12 7.378906 12 7.601562zM14.398438 7.601562C14.398438 7.820312 14.222656 8 14 8 13.777344 8 13.601562 7.820312 13.601562 7.601562 13.601562 7.378906 13.777344 7.199219 14 7.199219 14.222656 7.199219 14.398438 7.378906 14.398438 7.601562zM16.800781 7.601562C16.800781 7.820312 16.621094 8 16.398438 8 16.179688 8 16 7.820312 16 7.601562 16 7.378906 16.179688 7.199219 16.398438 7.199219 16.621094 7.199219 16.800781 7.378906 16.800781 7.601562zM9.601562 12.398438C9.601562 12.621094 9.421875 12.800781 9.199219 12.800781 8.980469 12.800781 8.800781 12.621094 8.800781 12.398438 8.800781 12.179688 8.980469 12 9.199219 12 9.421875 12 9.601562 12.179688 9.601562 12.398438zM9.601562 10C9.601562 10.222656 9.421875 10.398438 9.199219 10.398438 8.980469 10.398438 8.800781 10.222656 8.800781 10 8.800781 9.777344 8.980469 9.601562 9.199219 9.601562 9.421875 9.601562 9.601562 9.777344 9.601562 10zM8.398438 8.800781C8.398438 9.019531 8.222656 9.199219 8 9.199219 7.777344 9.199219 7.601562 9.019531 7.601562 8.800781 7.601562 8.578125 7.777344 8.398438 8 8.398438 8.222656 8.398438 8.398438 8.578125 8.398438 8.800781zM8.398438 11.199219C8.398438 11.421875 8.222656 11.601562 8 11.601562 7.777344 11.601562 7.601562 11.421875 7.601562 11.199219 7.601562 10.980469 7.777344 10.800781 8 10.800781 8.222656 10.800781 8.398438 10.980469 8.398438 11.199219zM10.800781 8.800781C10.800781 9.019531 10.621094 9.199219 10.398438 9.199219 10.179688 9.199219 10 9.019531 10 8.800781 10 8.578125 10.179688 8.398438 10.398438 8.398438 10.621094 8.398438 10.800781 8.578125 10.800781 8.800781zM12 10C12 10.222656 11.820312 10.398438 11.601562 10.398438 11.378906 10.398438 11.199219 10.222656 11.199219 10 11.199219 9.777344 11.378906 9.601562 11.601562 9.601562 11.820312 9.601562 12 9.777344 12 10zM14.398438 10C14.398438 10.222656 14.222656 10.398438 14 10.398438 13.777344 10.398438 13.601562 10.222656 13.601562 10 13.601562 9.777344 13.777344 9.601562 14 9.601562 14.222656 9.601562 14.398438 9.777344 14.398438 10zM13.199219 8.800781C13.199219 9.019531 13.019531 9.199219 12.800781 9.199219 12.578125 9.199219 12.398438 9.019531 12.398438 8.800781 12.398438 8.578125 12.578125 8.398438 12.800781 8.398438 13.019531 8.398438 13.199219 8.578125 13.199219 8.800781zM10.800781 11.199219C10.800781 11.421875 10.621094 11.601562 10.398438 11.601562 10.179688 11.601562 10 11.421875 10 11.199219 10 10.980469 10.179688 10.800781 10.398438 10.800781 10.621094 10.800781 10.800781 10.980469 10.800781 11.199219zM12 12.398438C12 12.621094 11.820312 12.800781 11.601562 12.800781 11.378906 12.800781 11.199219 12.621094 11.199219 12.398438 11.199219 12.179688 11.378906 12 11.601562 12 11.820312 12 12 12.179688 12 12.398438zM14.398438 12.398438C14.398438 12.621094 14.222656 12.800781 14 12.800781 13.777344 12.800781 13.601562 12.621094 13.601562 12.398438 13.601562 12.179688 13.777344 12 14 12 14.222656 12 14.398438 12.179688 14.398438 12.398438zM13.199219 11.199219C13.199219 11.421875 13.019531 11.601562 12.800781 11.601562 12.578125 11.601562 12.398438 11.421875 12.398438 11.199219 12.398438 10.980469 12.578125 10.800781 12.800781 10.800781 13.019531 10.800781 13.199219 10.980469 13.199219 11.199219zM15.601562 8.800781C15.601562 9.019531 15.421875 9.199219 15.199219 9.199219 14.980469 9.199219 14.800781 9.019531 14.800781 8.800781 14.800781 8.578125 14.980469 8.398438 15.199219 8.398438 15.421875 8.398438 15.601562 8.578125 15.601562 8.800781zM16.800781 10C16.800781 10.222656 16.621094 10.398438 16.398438 10.398438 16.179688 10.398438 16 10.222656 16 10 16 9.777344 16.179688 9.601562 16.398438 9.601562 16.621094 9.601562 16.800781 9.777344 16.800781 10zM15.601562 11.199219C15.601562 11.421875 15.421875 11.601562 15.199219 11.601562 14.980469 11.601562 14.800781 11.421875 14.800781 11.199219 14.800781 10.980469 14.980469 10.800781 15.199219 10.800781 15.421875 10.800781 15.601562 10.980469 15.601562 11.199219zM16.800781 12.398438C16.800781 12.621094 16.621094 12.800781 16.398438 12.800781 16.179688 12.800781 16 12.621094 16 12.398438 16 12.179688 16.179688 12 16.398438 12 16.621094 12 16.800781 12.179688 16.800781 12.398438zM9.601562 14.800781C9.601562 15.019531 9.421875 15.199219 9.199219 15.199219 8.980469 15.199219 8.800781 15.019531 8.800781 14.800781 8.800781 14.578125 8.980469 14.398438 9.199219 14.398438 9.421875 14.398438 9.601562 14.578125 9.601562 14.800781zM8.398438 13.601562C8.398438 13.820312 8.222656 14 8 14 7.777344 14 7.601562 13.820312 7.601562 13.601562 7.601562 13.378906 7.777344 13.199219 8 13.199219 8.222656 13.199219 8.398438 13.378906 8.398438 13.601562zM10.800781 13.601562C10.800781 13.820312 10.621094 14 10.398438 14 10.179688 14 10 13.820312 10 13.601562 10 13.378906 10.179688 13.199219 10.398438 13.199219 10.621094 13.199219 10.800781 13.378906 10.800781 13.601562zM12 14.800781C12 15.019531 11.820312 15.199219 11.601562 15.199219 11.378906 15.199219 11.199219 15.019531 11.199219 14.800781 11.199219 14.578125 11.378906 14.398438 11.601562 14.398438 11.820312 14.398438 12 14.578125 12 14.800781zM14.398438 14.800781C14.398438 15.019531 14.222656 15.199219 14 15.199219 13.777344 15.199219 13.601562 15.019531 13.601562 14.800781 13.601562 14.578125 13.777344 14.398438 14 14.398438 14.222656 14.398438 14.398438 14.578125 14.398438 14.800781zM13.199219 13.601562C13.199219 13.820312 13.019531 14 12.800781 14 12.578125 14 12.398438 13.820312 12.398438 13.601562 12.398438 13.378906 12.578125 13.199219 12.800781 13.199219 13.019531 13.199219 13.199219 13.378906 13.199219 13.601562zM15.601562 13.601562C15.601562 13.820312 15.421875 14 15.199219 14 14.980469 14 14.800781 13.820312 14.800781 13.601562 14.800781 13.378906 14.980469 13.199219 15.199219 13.199219 15.421875 13.199219 15.601562 13.378906 15.601562 13.601562zM8.398438 16C8.398438 16.222656 8.222656 16.398438 8 16.398438 7.777344 16.398438 7.601562 16.222656 7.601562 16 7.601562 15.777344 7.777344 15.601562 8 15.601562 8.222656 15.601562 8.398438 15.777344 8.398438 16zM10.800781 16C10.800781 16.222656 10.621094 16.398438 10.398438 16.398438 10.179688 16.398438 10 16.222656 10 16 10 15.777344 10.179688 15.601562 10.398438 15.601562 10.621094 15.601562 10.800781 15.777344 10.800781 16zM13.199219 16C13.199219 16.222656 13.019531 16.398438 12.800781 16.398438 12.578125 16.398438 12.398438 16.222656 12.398438 16 12.398438 15.777344 12.578125 15.601562 12.800781 15.601562 13.019531 15.601562 13.199219 15.777344 13.199219 16zM15.601562 16C15.601562 16.222656 15.421875 16.398438 15.199219 16.398438 14.980469 16.398438 14.800781 16.222656 14.800781 16 14.800781 15.777344 14.980469 15.601562 15.199219 15.601562 15.421875 15.601562 15.601562 15.777344 15.601562 16zM16.800781 14.800781C16.800781 15.019531 16.621094 15.199219 16.398438 15.199219 16.179688 15.199219 16 15.019531 16 14.800781 16 14.578125 16.179688 14.398438 16.398438 14.398438 16.621094 14.398438 16.800781 14.578125 16.800781 14.800781zM17.601562 2.3125C17.601562 2.09375 17.421875 1.914062 17.199219 1.914062 16.980469 1.914062 16.800781 2.09375 16.800781 2.3125L16.800781 2.742188C16.800781 2.964844 16.980469 3.140625 17.199219 3.140625 17.421875 3.140625 17.601562 2.964844 17.601562 2.742188zM17.199219 4.058594C16.980469 4.058594 16.800781 4.234375 16.800781 4.457031L16.800781 4.886719C16.800781 5.105469 16.980469 5.285156 17.199219 5.285156 17.421875 5.285156 17.601562 5.105469 17.601562 4.886719L17.601562 4.457031C17.601562 4.234375 17.421875 4.058594 17.199219 4.058594zM16.835938.765625C16.898438.902344 17.039062 1 17.199219 1 17.421875 1 17.601562.820312 17.601562.601562L17.601562 0 17 0C16.777344 0 16.601562.179688 16.601562.398438 16.601562.5625 16.695312.703125 16.835938.765625zM8.589844.800781L9.011719.800781C9.230469.800781 9.410156.621094 9.410156.398438 9.410156.179688 9.230469 0 9.011719 0L8.589844 0C8.371094 0 8.191406.179688 8.191406.398438 8.191406.621094 8.367188.800781 8.589844.800781zM2.28125.800781L2.703125.800781C2.921875.800781 3.101562.621094 3.101562.398438 3.101562.179688 2.921875 0 2.703125 0L2.28125 0C2.0625 0 1.882812.179688 1.882812.398438 1.882812.621094 2.0625.800781 2.28125.800781zM4.382812.800781L4.804688.800781C5.027344.800781 5.203125.621094 5.203125.398438 5.203125.179688 5.027344 0 4.804688 0L4.382812 0C4.164062 0 3.984375.179688 3.984375.398438 3.984375.621094 4.164062.800781 4.382812.800781zM10.691406.800781L11.113281.800781C11.332031.800781 11.511719.621094 11.511719.398438 11.511719.179688 11.332031 0 11.113281 0L10.691406 0C10.472656 0 10.292969.179688 10.292969.398438 10.292969.621094 10.472656.800781 10.691406.800781zM14.898438.800781L15.316406.800781C15.539062.800781 15.71875.621094 15.71875.398438 15.71875.179688 15.539062 0 15.316406 0L14.898438 0C14.675781 0 14.496094.179688 14.496094.398438 14.496094.621094 14.675781.800781 14.898438.800781zM12.792969.800781L13.214844.800781C13.4375.800781 13.613281.621094 13.613281.398438 13.613281.179688 13.4375 0 13.214844 0L12.792969 0C12.574219 0 12.394531.179688 12.394531.398438 12.394531.621094 12.574219.800781 12.792969.800781zM6.488281.800781L6.90625.800781C7.128906.800781 7.308594.621094 7.308594.398438 7.308594.179688 7.128906 0 6.90625 0L6.488281 0C6.265625 0 6.085938.179688 6.085938.398438 6.085938.621094 6.265625.800781 6.488281.800781zM.601562 0L0 0 0 .601562C0 .820312.179688 1 .398438 1 .5625 1 .703125.902344.765625.765625.902344.703125 1 .5625 1 .398438 1 .179688.820312 0 .601562 0zM.398438 11.511719C.621094 11.511719.800781 11.335938.800781 11.113281L.800781 10.691406C.800781 10.472656.621094 10.292969.398438 10.292969.179688 10.292969 0 10.472656 0 10.691406L0 11.113281C0 11.335938.179688 11.511719.398438 11.511719zM.398438 9.410156C.621094 9.410156.800781 9.230469.800781 9.011719L.800781 8.589844C.800781 8.367188.621094 8.191406.398438 8.191406.179688 8.191406 0 8.367188 0 8.589844L0 9.011719C0 9.230469.179688 9.410156.398438 9.410156zM.398438 15.71875C.621094 15.71875.800781 15.539062.800781 15.316406L.800781 14.898438C.800781 14.675781.621094 14.496094.398438 14.496094.179688 14.496094 0 14.675781 0 14.898438L0 15.316406C0 15.539062.179688 15.71875.398438 15.71875zM.398438 13.613281C.621094 13.613281.800781 13.4375.800781 13.214844L.800781 12.792969C.800781 12.574219.621094 12.394531.398438 12.394531.179688 12.394531 0 12.574219 0 12.792969L0 13.214844C0 13.4375.179688 13.613281.398438 13.613281zM.398438 7.308594C.621094 7.308594.800781 7.128906.800781 6.90625L.800781 6.488281C.800781 6.265625.621094 6.085938.398438 6.085938.179688 6.085938 0 6.265625 0 6.488281L0 6.90625C0 7.128906.179688 7.308594.398438 7.308594zM.398438 3.101562C.621094 3.101562.800781 2.925781.800781 2.703125L.800781 2.28125C.800781 2.0625.621094 1.882812.398438 1.882812.179688 1.882812 0 2.0625 0 2.28125L0 2.703125C0 2.925781.179688 3.101562.398438 3.101562zM.398438 5.207031C.621094 5.207031.800781 5.027344.800781 4.804688L.800781 4.386719C.800781 4.164062.621094 3.984375.398438 3.984375.179688 3.984375 0 4.164062 0 4.386719L0 4.804688C0 5.027344.179688 5.207031.398438 5.207031zM.765625 16.835938C.703125 16.695312.5625 16.601562.398438 16.601562.179688 16.601562 0 16.777344 0 17L0 17.601562.601562 17.601562C.820312 17.601562 1 17.421875 1 17.199219 1 17.039062.902344 16.898438.765625 16.835938zM4.886719 16.800781L4.457031 16.800781C4.234375 16.800781 4.058594 16.980469 4.058594 17.199219 4.058594 17.421875 4.234375 17.601562 4.457031 17.601562L4.886719 17.601562C5.105469 17.601562 5.285156 17.421875 5.285156 17.199219 5.285156 16.980469 5.105469 16.800781 4.886719 16.800781zM2.742188 16.800781L2.3125 16.800781C2.09375 16.800781 1.914062 16.980469 1.914062 17.199219 1.914062 17.421875 2.09375 17.601562 2.3125 17.601562L2.742188 17.601562C2.964844 17.601562 3.144531 17.421875 3.144531 17.199219 3.144531 16.980469 2.964844 16.800781 2.742188 16.800781zM7.199219 19.113281C7.199219 18.894531 7.019531 18.714844 6.800781 18.714844 6.578125 18.714844 6.398438 18.894531 6.398438 19.113281L6.398438 19.542969C6.398438 19.765625 6.578125 19.941406 6.800781 19.941406 7.019531 19.941406 7.199219 19.765625 7.199219 19.542969zM6.800781 20.859375C6.578125 20.859375 6.398438 21.035156 6.398438 21.257812L6.398438 21.6875C6.398438 21.90625 6.578125 22.085938 6.800781 22.085938 7.019531 22.085938 7.199219 21.90625 7.199219 21.6875L7.199219 21.257812C7.199219 21.035156 7.019531 20.859375 6.800781 20.859375zM7.164062 23.234375C7.101562 23.097656 6.960938 23 6.800781 23 6.578125 23 6.398438 23.179688 6.398438 23.398438L6.398438 24 7 24C7.222656 24 7.398438 23.820312 7.398438 23.601562 7.398438 23.4375 7.304688 23.296875 7.164062 23.234375zM21.71875 23.199219L21.296875 23.199219C21.074219 23.199219 20.898438 23.378906 20.898438 23.601562 20.898438 23.820312 21.074219 24 21.296875 24L21.71875 24C21.9375 24 22.117188 23.820312 22.117188 23.601562 22.117188 23.378906 21.9375 23.199219 21.71875 23.199219zM11.207031 23.199219L10.785156 23.199219C10.5625 23.199219 10.386719 23.378906 10.386719 23.601562 10.386719 23.820312 10.5625 24 10.785156 24L11.207031 24C11.425781 24 11.605469 23.820312 11.605469 23.601562 11.605469 23.378906 11.425781 23.199219 11.207031 23.199219zM13.308594 23.199219L12.886719 23.199219C12.667969 23.199219 12.488281 23.378906 12.488281 23.601562 12.488281 23.820312 12.667969 24 12.886719 24L13.308594 24C13.527344 24 13.707031 23.820312 13.707031 23.601562 13.707031 23.378906 13.527344 23.199219 13.308594 23.199219zM9.101562 23.199219L8.683594 23.199219C8.460938 23.199219 8.28125 23.378906 8.28125 23.601562 8.28125 23.820312 8.460938 24 8.683594 24L9.101562 24C9.324219 24 9.503906 23.820312 9.503906 23.601562 9.503906 23.378906 9.324219 23.199219 9.101562 23.199219zM15.410156 23.199219L14.988281 23.199219C14.769531 23.199219 14.589844 23.378906 14.589844 23.601562 14.589844 23.820312 14.769531 24 14.988281 24L15.410156 24C15.628906 24 15.808594 23.820312 15.808594 23.601562 15.808594 23.378906 15.632812 23.199219 15.410156 23.199219zM17.511719 23.199219L17.09375 23.199219C16.871094 23.199219 16.691406 23.378906 16.691406 23.601562 16.691406 23.820312 16.871094 24 17.09375 24L17.511719 24C17.734375 24 17.914062 23.820312 17.914062 23.601562 17.914062 23.378906 17.734375 23.199219 17.511719 23.199219zM19.613281 23.199219L19.195312 23.199219C18.972656 23.199219 18.792969 23.378906 18.792969 23.601562 18.792969 23.820312 18.972656 24 19.195312 24L19.613281 24C19.835938 24 20.015625 23.820312 20.015625 23.601562 20.015625 23.378906 19.835938 23.199219 19.613281 23.199219zM23.601562 23C23.4375 23 23.296875 23.097656 23.234375 23.234375 23.097656 23.296875 23 23.4375 23 23.601562 23 23.820312 23.179688 24 23.398438 24L24 24 24 23.398438C24 23.179688 23.820312 23 23.601562 23zM23.601562 16.691406C23.378906 16.691406 23.199219 16.871094 23.199219 17.09375L23.199219 17.511719C23.199219 17.734375 23.378906 17.914062 23.601562 17.914062 23.820312 17.914062 24 17.734375 24 17.511719L24 17.09375C24 16.871094 23.820312 16.691406 23.601562 16.691406zM23.601562 8.28125C23.378906 8.28125 23.199219 8.460938 23.199219 8.683594L23.199219 9.101562C23.199219 9.324219 23.378906 9.503906 23.601562 9.503906 23.820312 9.503906 24 9.324219 24 9.101562L24 8.683594C24 8.460938 23.820312 8.28125 23.601562 8.28125zM23.601562 18.792969C23.378906 18.792969 23.199219 18.972656 23.199219 19.195312L23.199219 19.613281C23.199219 19.835938 23.378906 20.015625 23.601562 20.015625 23.820312 20.015625 24 19.835938 24 19.613281L24 19.195312C24 18.972656 23.820312 18.792969 23.601562 18.792969zM23.601562 20.898438C23.378906 20.898438 23.199219 21.074219 23.199219 21.296875L23.199219 21.71875C23.199219 21.9375 23.378906 22.117188 23.601562 22.117188 23.820312 22.117188 24 21.9375 24 21.71875L24 21.296875C24 21.074219 23.820312 20.898438 23.601562 20.898438zM23.601562 14.589844C23.378906 14.589844 23.199219 14.769531 23.199219 14.988281L23.199219 15.410156C23.199219 15.632812 23.378906 15.808594 23.601562 15.808594 23.820312 15.808594 24 15.632812 24 15.410156L24 14.988281C24 14.769531 23.820312 14.589844 23.601562 14.589844zM23.601562 10.386719C23.378906 10.386719 23.199219 10.5625 23.199219 10.785156L23.199219 11.207031C23.199219 11.425781 23.378906 11.605469 23.601562 11.605469 23.820312 11.605469 24 11.425781 24 11.207031L24 10.785156C24 10.5625 23.820312 10.386719 23.601562 10.386719zM23.601562 12.488281C23.378906 12.488281 23.199219 12.664062 23.199219 12.886719L23.199219 13.308594C23.199219 13.527344 23.378906 13.707031 23.601562 13.707031 23.820312 13.707031 24 13.527344 24 13.308594L24 12.886719C24 12.664062 23.820312 12.488281 23.601562 12.488281zM23.398438 6.398438C23.179688 6.398438 23 6.578125 23 6.800781 23 6.960938 23.097656 7.101562 23.234375 7.164062 23.296875 7.304688 23.4375 7.398438 23.601562 7.398438 23.820312 7.398438 24 7.222656 24 7L24 6.398438zM19.113281 7.199219L19.542969 7.199219C19.761719 7.199219 19.941406 7.019531 19.941406 6.800781 19.941406 6.578125 19.761719 6.398438 19.542969 6.398438L19.113281 6.398438C18.894531 6.398438 18.714844 6.578125 18.714844 6.800781 18.714844 7.019531 18.894531 7.199219 19.113281 7.199219zM21.257812 7.199219L21.6875 7.199219C21.90625 7.199219 22.085938 7.019531 22.085938 6.800781 22.085938 6.578125 21.90625 6.398438 21.6875 6.398438L21.257812 6.398438C21.035156 6.398438 20.855469 6.578125 20.855469 6.800781 20.855469 7.019531 21.035156 7.199219 21.257812 7.199219zM21.257812 7.199219"/>
    <path d="M 6.398438 17.601562 L 6.457031 17.601562 C 6.527344 17.71875 6.652344 17.800781 6.800781 17.800781 C 6.945312 17.800781 7.070312 17.71875 7.140625 17.601562 L 17.601562 17.601562 L 17.601562 7.140625 C 17.71875 7.070312 17.800781 6.945312 17.800781 6.800781 C 17.800781 6.652344 17.71875 6.527344 17.601562 6.457031 L 17.601562 6.398438 L 17.542969 6.398438 C 17.472656 6.28125 17.347656 6.199219 17.199219 6.199219 C 17.054688 6.199219 16.929688 6.28125 16.859375 6.398438 L 6.398438 6.398438 L 6.398438 16.859375 C 6.28125 16.929688 6.199219 17.054688 6.199219 17.199219 C 6.199219 17.347656 6.28125 17.472656 6.398438 17.542969 Z M 7.199219 7.199219 L 16.800781 7.199219 L 16.800781 16.800781 L 7.199219 16.800781 Z M 7.199219 7.199219"/>
</svg>

<svg xmlns="http://www.w3.org/2000/svg" width="32" height="32" viewBox="0 0 24 24">
    <path d="M9.602 7.602a.401.401 0 1 1-.802-.005.401.401 0 0 1 .802.005zm0 0M12 7.602a.4.4 0 1 1-.8-.004.4.4 0 0 1 .8.004zm0 0M14.398 7.602a.398.398 0 1 1-.796 0 .398.398 0 1 1 .796 0zm0 0M16.8 7.602A.401.401 0 1 1 16 7.597a.401.401 0 0 1 .802.005zm0 0M9.602 12.398a.401.401 0 1 1 0 0zm0 0M9.602 10c0 .223-.18.398-.403.398a.398.398 0 1 1 0-.796c.223 0 .403.175.403.398zm0 0M8.398 8.8a.398.398 0 1 1-.796 0 .398.398 0 1 1 .796 0zm0 0M8.398 11.2a.398.398 0 1 1-.796 0 .398.398 0 1 1 .796 0zm0 0M10.8 8.8A.401.401 0 1 1 10 8.797a.401.401 0 0 1 .802.005zm0 0M12 10c0 .223-.18.398-.398.398a.398.398 0 1 1 0-.796c.218 0 .398.175.398.398zm0 0M14.398 10a.395.395 0 0 1-.398.398.395.395 0 0 1-.398-.398c0-.223.175-.398.398-.398.223 0 .398.175.398.398zm0 0M13.2 8.8a.4.4 0 1 1-.801-.003.4.4 0 0 1 .8.004zm0 0M10.8 11.2a.401.401 0 1 1 0 0zm0 0M12 12.398a.401.401 0 1 1-.802.003.401.401 0 0 1 .802-.003zm0 0M14.398 12.398a.398.398 0 1 1-.796 0 .398.398 0 1 1 .796 0zm0 0M13.2 11.2a.401.401 0 1 1-.803.002.401.401 0 0 1 .802-.003zm0 0M15.602 8.8a.401.401 0 1 1-.802-.004.401.401 0 0 1 .802.005zm0 0M16.8 10c0 .223-.179.398-.402.398a.398.398 0 1 1 0-.796c.223 0 .403.175.403.398zm0 0M15.602 11.2a.401.401 0 1 1 0 0zm0 0M16.8 12.398a.401.401 0 1 1 0 0zm0 0M9.602 14.8a.401.401 0 1 1-.802-.004.401.401 0 0 1 .802.005zm0 0M8.398 13.602a.398.398 0 1 1-.796 0 .398.398 0 1 1 .796 0zm0 0M10.8 13.602a.401.401 0 1 1-.801-.005.401.401 0 0 1 .802.005zm0 0M12 14.8a.4.4 0 1 1-.8-.003.4.4 0 0 1 .8.004zm0 0M14.398 14.8a.398.398 0 1 1-.796 0 .398.398 0 1 1 .796 0zm0 0M13.2 13.602a.4.4 0 1 1-.801-.004.4.4 0 0 1 .8.004zm0 0M15.602 13.602a.401.401 0 1 1-.802-.005.401.401 0 0 1 .802.005zm0 0M8.398 16a.395.395 0 0 1-.398.398.395.395 0 0 1-.398-.398c0-.223.175-.398.398-.398.223 0 .398.175.398.398zm0 0M10.8 16c0 .223-.179.398-.402.398a.398.398 0 1 1 0-.796c.223 0 .403.175.403.398zm0 0M13.2 16c0 .223-.18.398-.4.398a.398.398 0 1 1 0-.796c.22 0 .4.175.4.398zm0 0M15.602 16c0 .223-.18.398-.403.398a.398.398 0 1 1 0-.796c.223 0 .403.175.403.398zm0 0M16.8 14.8a.401.401 0 1 1-.801-.004.401.401 0 0 1 .802.005zm0 0M17.602 2.313a.401.401 0 0 0-.801 0v.43c0 .222.18.398.398.398a.398.398 0 0 0 .403-.399zm0 0M17.2 4.059a.398.398 0 0 0-.4.398v.43a.4.4 0 0 0 .802 0v-.43a.398.398 0 0 0-.403-.398zm0 0M16.836.766a.401.401 0 0 0 .766-.164V0H17a.398.398 0 0 0-.398.398c0 .164.093.305.234.368zm0 0M8.59.8h.422a.401.401 0 0 0 0-.8H8.59a.4.4 0 0 0 0 .8zm0 0M2.281.8h.422a.401.401 0 0 0 0-.8h-.422a.4.4 0 0 0 0 .8zm0 0M4.383.8h.422c.222 0 .398-.179.398-.402A.398.398 0 0 0 4.805 0h-.422a.4.4 0 0 0 0 .8zm0 0M10.691.8h.422a.401.401 0 0 0 0-.8h-.422a.4.4 0 0 0 0 .8zm0 0M14.898.8h.418a.401.401 0 0 0 0-.8h-.418a.401.401 0 1 0 0 .8zm0 0M12.793.8h.422c.223 0 .398-.179.398-.402A.398.398 0 0 0 13.215 0h-.422a.4.4 0 0 0 0 .8zm0 0M6.488.8h.418a.401.401 0 0 0 0-.8h-.418a.401.401 0 1 0 0 .8zm0 0M.602 0H0v.602a.4.4 0 0 0 .766.164A.4.4 0 0 0 .602 0zm0 0M.398 11.512a.398.398 0 0 0 .403-.399v-.422a.401.401 0 0 0-.801 0v.422c0 .223.18.399.398.399zm0 0M.398 9.41c.223 0 .403-.18.403-.398V8.59a.398.398 0 0 0-.403-.399A.398.398 0 0 0 0 8.59v.422a.4.4 0 0 0 .398.398zm0 0M.398 15.719c.223 0 .403-.18.403-.403v-.418a.401.401 0 0 0-.8 0l-.001.418c0 .223.18.403.398.403zm0 0M.398 13.613a.398.398 0 0 0 .403-.398v-.422a.401.401 0 0 0-.801 0v.422c0 .223.18.398.398.398zm0 0M.398 7.309c.223 0 .403-.18.403-.403v-.418a.401.401 0 0 0-.8 0l-.001.418c0 .223.18.403.398.403zm0 0M.398 3.102a.398.398 0 0 0 .403-.399v-.422a.401.401 0 0 0-.801 0v.422c0 .223.18.399.398.399zm0 0M.398 5.207c.223 0 .403-.18.403-.402v-.418a.401.401 0 0 0-.8 0l-.001.418c0 .222.18.402.398.402zm0 0M.766 16.836a.398.398 0 0 0-.368-.234A.398.398 0 0 0 0 17v.602h.602a.401.401 0 0 0 .164-.766zm0 0M4.887 16.8h-.43a.398.398 0 0 0-.398.4c0 .222.175.402.398.402h.43a.401.401 0 0 0 0-.801zm0 0M2.742 16.8h-.43a.4.4 0 0 0 0 .802h.43a.401.401 0 0 0 0-.8zm0 0M7.2 19.113a.4.4 0 0 0-.802 0v.43c0 .223.18.398.403.398a.398.398 0 0 0 .398-.398zm0 0M6.8 20.86a.398.398 0 0 0-.402.398v.43a.401.401 0 0 0 .801 0v-.43a.398.398 0 0 0-.398-.399zm0 0M7.164 23.234a.401.401 0 0 0-.766.164V24H7c.223 0 .398-.18.398-.398a.398.398 0 0 0-.234-.368zm0 0M21.719 23.2h-.422a.398.398 0 0 0-.399.402c0 .218.176.398.399.398h.422a.4.4 0 0 0 0-.8zm0 0M11.207 23.2h-.422a.398.398 0 0 0-.398.402c0 .218.175.398.398.398h.422a.4.4 0 0 0 0-.8zm0 0M13.309 23.2h-.422a.401.401 0 0 0 0 .8h.422a.4.4 0 0 0 0-.8zm0 0M9.102 23.2h-.418a.401.401 0 0 0 0 .8h.418a.401.401 0 1 0 0-.8zm0 0M15.41 23.2h-.422a.401.401 0 0 0 0 .8h.422a.4.4 0 0 0 0-.8zm0 0M17.512 23.2h-.418a.401.401 0 0 0 0 .8h.418a.401.401 0 1 0 0-.8zm0 0M19.613 23.2h-.418a.401.401 0 0 0 0 .8h.418a.401.401 0 1 0 0-.8zm0 0M23.602 23a.404.404 0 0 0-.368.234.4.4 0 0 0 .164.766H24v-.602a.4.4 0 0 0-.398-.398zm0 0M23.602 16.691a.402.402 0 0 0-.403.403v.418a.401.401 0 0 0 .8 0l.001-.418a.401.401 0 0 0-.398-.403zm0 0M23.602 8.281a.402.402 0 0 0-.403.403v.418a.401.401 0 0 0 .8 0l.001-.418a.401.401 0 0 0-.398-.403zm0 0M23.602 18.793a.402.402 0 0 0-.403.402v.418a.401.401 0 0 0 .8 0l.001-.418a.401.401 0 0 0-.398-.402zm0 0M23.602 20.898a.398.398 0 0 0-.403.399v.422a.401.401 0 0 0 .801 0v-.422a.398.398 0 0 0-.398-.399zm0 0M23.602 14.59a.401.401 0 0 0-.403.398v.422c0 .223.18.399.403.399A.398.398 0 0 0 24 15.41v-.422a.4.4 0 0 0-.398-.398zm0 0M23.602 10.387a.398.398 0 0 0-.403.398v.422a.401.401 0 0 0 .801 0v-.422a.398.398 0 0 0-.398-.398zm0 0M23.602 12.488a.398.398 0 0 0-.403.399v.422a.401.401 0 0 0 .801 0v-.422a.398.398 0 0 0-.398-.399zm0 0M23.398 6.398a.401.401 0 0 0-.164.766c.063.14.203.234.368.234A.398.398 0 0 0 24 7v-.602zm0 0M19.113 7.2h.43a.4.4 0 0 0 0-.802h-.43a.401.401 0 0 0 0 .801zm0 0M21.258 7.2h.43a.4.4 0 0 0 0-.802h-.43a.401.401 0 0 0 0 .8zm0 0"/>
    <path d="M6.398 17.602h.059a.4.4 0 0 0 .344.199.4.4 0 0 0 .34-.2H17.6V7.142a.4.4 0 0 0 .2-.34.4.4 0 0 0-.2-.344v-.059h-.058a.4.4 0 0 0-.344-.199.4.4 0 0 0-.34.2H6.4v10.46a.4.4 0 0 0-.2.34.4.4 0 0 0 .2.344zM7.2 7.199h9.602v9.602H7.199zm0 0"/>
</svg>
